build/images/sprite.svg

<svg xmlns="http://www.w3.org/2000/svg"><symbol id="icon-line" viewBox="0 0 22 1"><path fill="#FFF" d="M0 .999v-1h22v1H0z"/></symbol><symbol id="icon-tip" viewBox="0 0 19 13"><path d="M12.794.194a.683.683 0 00-.957 0 .645.645 0 000 .923l4.855 4.725H.67a.657.657 0 00-.67.652c0 .364.297.662.67.662h16.022l-4.855 4.716a.655.655 0 000 .931.683.683 0 00.957 0l6.005-5.843a.63.63 0 000-.922L12.794.194z"/></symbol></svg>

<svg xmlns="http://www.w3.org/2000/svg" xmlns:xlink="http://www.w3.org/1999/xlink"><symbol id="icon-line" viewBox="0 0 22 1">
<path fill="rgb(255, 255, 255)" d="M-0.000,0.999 L-0.000,-0.001 L22.000,-0.001 L22.000,0.999 L-0.000,0.999 Z"/>
</symbol><symbol id="icon-tip" viewBox=" 0 0 19 13">
    <path d="M12.794,0.194 C12.535,-0.067 12.105,-0.067 11.837,0.194 C11.578,0.446 11.578,0.865 11.837,1.117 L16.692,5.842 L0.670,5.842 C0.297,5.842 -0.000,6.131 -0.000,6.494 C-0.000,6.858 0.297,7.156 0.670,7.156 L16.692,7.156 L11.837,11.872 C11.578,12.133 11.578,12.552 11.837,12.803 C12.105,13.064 12.536,13.064 12.794,12.803 L18.799,6.960 C19.067,6.708 19.067,6.290 18.799,6.038 L12.794,0.194 Z"/>
</symbol></svg>
